X: 8
T: Brendan Tonra's
C: Brendan Tonra
Z: Jan Howard
S: https://thesession.org/tunes/451#setting51576
R: jig
M: 6/8
L: 1/8
K: Dmaj
|:"D" F3 AFE|EDB,"A" A,B,D|"D"FEF "G"G2A|"D"ABF "A"AFE|
"D"~F2B AFE|EDB,"A" A,B,D|"D"FEF "G"G2 A|"A"BAF"D" D3:|
|:"D"~f2 d dcd|"A"edB Ade|"D"fdd dcd|"A"ABF Ade|
"D"fef dcd|"A"edc"G" Bcd|"D"faf"G" gec|"A"dAF"D" D3:|

%-------------------- TUNE SEPARATOR --------------------%

